!!!OTL: 1901. Petrus und Pilatus auf der Reise. / [Wanderspiel der Kinder.]
!!!ARE: Europa, Mitteleuropa, Deutschland, Niederrhein, Wesel
!!!SCT: E1901A
!!!TXL: @@DE
!!!YEM: Copyright 1995, estate of Helmut Schaffrath.
**kern	**text
*ICvox	*
*M2/4	*
*k[]	*
*C:	*
!LO:TX:a:t=Mäßig.	!
!LO:TX:a:t=Vom Niederrhein (Umgegend v. Weſel).	!
{8g	.
=1	=1
8g	Komm,
8cc	wir
8cc	wol-
8cc	-len
=2	=2
8ccL	wan-
8aJ	.
8g	-dern,
8r}	.
=3	=3
{8bL	ſprach
8ccJ	.
4b	Pe-
=4	=4
4cc	-trus,
8r}	.
{8g	von
=5	=5
8cc	ei-
8cc	-nem
8cc	Ort
8cc	ʒum
=6	=6
8ccL	an-
16b	.
16aJ	.
8g	-dern,
8r}	.
=7	=7
{8a	ſa
8r	.
8a	ſa
8r	.
=8	=8
8aL	an-
16g	.
16fJ	.
8e	-dern,
8r}	.
=9	=9
!LO:TX:a:t=Langsamer.	!
{8g	ſprach
8cc	Pi-
8bL	-la-
16a	.
16g#J	.
=10	=10
4.a;}	-tus.
==	==
!!!AGN: Kinder - Lied, Wander - Spiel
!! modulierend
!!!ONB: ESAC (Essen Associative Code) Database: ERK3
!!!AMT: simple duple
!!!AIN: vox
!!!EED: Helmut Schaffrath
!!!EEV: 1.0
!!!GTL: Einige Kinderlieder. d) Spiel- und Tanzliedchen.
!!!URL-scan: https://rosdok.uni-rostock.de/mcrviewer/recordIdentifier/rosdok_ppn745177999/iview2/phys_0618.iview2?x=90.2071057573853&y=16.751373539678752&scale=0.7014306698522895&rotation=0&layout=singlePageLayout
!!!ENC: Anna Maria Matuszewska
!!!EEV: 2025/09/01
*-	*-
